X: 25383
T: March From My Mother
R: polka
M: 2/4
K: Dmajor
|:A2|d2 ed/e/|fd B2|Bg e/f/e/d/|cB BA|
A2 d2 ed/e/|fd B2|Bg ef/e/|d2:|
|:FA A/B/A/G/|FA A2|df e/f/e/d/|cB BA|
FA A/B/A/G/|FA A2|df ef/e/|d2:|

